X: 39755
T: Thames, The
R: hornpipe
M: 4/4
K: Gmajor
dc|:BgdB AecA|GdBG FcAF|GDEF GABc|^cded fed=c|
BgdB AecA|GdBG FcAF|GDEF GABc|1 ^cdef g2d=c:|2 ^cdef g3A||
|:Ad^cd edcd|Be^de fede|gfed ^cBAG|FA^GB A3A|
Ad^cd edcd|Be^de fede|gfed ^cABc|1 d2f2 d3A:|2 d2 f2d2||

